web/packages/design/src/ResourceIcon/assets/anthem.svg

<svg width="72" height="72" viewBox="0 0 72 72" fill="none" xmlns="http://www.w3.org/2000/svg">
<g clip-path="url(#clip0_15935_6768)">
<path d="M72 51.9703H51.9559L51.9615 72.0005H20.0526V51.9703H0V20.0307H20.0526V0.000488281H51.9559V20.0307H72V51.9703Z" fill="#009DE1"/>
<path fill-rule="evenodd" clip-rule="evenodd" d="M31.4296 27.6342H18.1625H18.154C19.1415 25.5099 20.4834 23.5879 22.1207 21.9525C25.6991 18.3782 30.6363 16.1611 36.0967 16.1611C40.3672 16.1611 46.4522 18.766 49.7183 21.59C52.1827 23.7143 52.63 24.5404 54.0647 27.6426H40.4516C39.135 27.6426 38.0716 27.2549 37.4639 26.6226C36.6706 25.8133 36.6115 24.6163 37.7002 23.2928C39.6076 20.9493 37.945 18.8671 35.9364 18.7828C33.9193 18.707 32.2651 20.9493 34.1809 23.2928C35.2612 24.6163 35.2021 25.8218 34.4172 26.6226C33.8011 27.2633 32.7462 27.6426 31.4296 27.6342ZM29.5824 40.3918C27.3337 44.5823 24.5795 49.715 23.7326 51.3053C19.2174 47.6805 16.3311 42.1252 16.3311 35.9039C16.3311 33.552 16.7446 31.2675 17.4957 29.1769C20.5594 29.2465 23.4117 29.5581 25.7618 29.8149C27.1083 29.9619 28.29 30.091 29.2522 30.1463C32.0794 30.3149 34.1725 31.8154 32.2567 35.4065C31.6839 36.4753 30.6951 38.3182 29.5824 40.3918ZM37.6918 38.6605C38.1813 39.495 47.0682 52.3337 47.0682 52.3337C43.9371 54.4244 40.249 55.6467 36.0967 55.6467C31.9444 55.6467 28.0959 54.3822 24.9142 52.1904C26.5768 49.7795 33.7336 39.3939 34.1725 38.6605C34.6704 37.8259 35.0924 37.3201 35.9279 37.3201C36.7634 37.3201 37.1854 37.8344 37.6918 38.6605ZM54.6808 29.1431C55.4488 31.2506 55.8624 33.5267 55.8624 35.9039V35.9123C55.8624 42.2516 52.8663 47.8912 48.2076 51.5076C47.9544 51.0018 41.5318 38.9892 39.5992 35.4065C37.6918 31.8238 39.7764 30.3149 42.6206 30.1463C43.5762 30.0895 44.7498 29.9572 46.0873 29.8065C48.5182 29.5325 51.4906 29.1975 54.6808 29.1431ZM22.8956 25.0536H32.002C32.002 24.4776 31.7284 24.0768 31.4266 23.6345C30.8935 22.8533 30.272 21.9427 30.9133 19.709C27.8244 20.375 24.9042 22.3813 22.8956 25.0536ZM40.948 19.709C44.0454 20.375 46.6785 22.7607 48.9741 25.0536H39.8593C39.8593 24.4818 40.1317 24.0834 40.4328 23.6431C40.9664 22.8628 41.59 21.9507 40.948 19.709ZM28.8371 51.3548C28.8371 51.3548 35.3525 41.0788 35.9349 41.0788C36.5172 41.0788 43.041 51.3548 43.041 51.3548C41.1168 52.358 38.6862 52.8553 35.9349 52.8553C33.1835 52.8553 30.7529 52.3495 28.8371 51.3548ZM42.871 32.8176L42.8722 32.8175V32.8091C43.463 32.8091 52.6538 32.0588 52.6538 32.0588C53.8185 38.5667 51.8942 43.2453 48.8897 46.9966C48.8897 46.9966 42.7879 35.4813 42.1296 34.2337C41.4548 32.9784 42.1288 32.9019 42.871 32.8176ZM19.2244 32.0672C19.2244 32.0672 28.4151 32.8175 28.9975 32.8175V32.8259C29.757 32.9018 30.4153 32.9861 29.757 34.2422C29.0819 35.4898 22.98 47.005 22.98 47.005C19.9755 43.2537 18.0512 38.5751 19.2244 32.0672Z" fill="white"/>
</g>
<defs>
<clipPath id="clip0_15935_6768">
<rect width="72" height="72" fill="white" transform="translate(0 0.000488281)"/>
</clipPath>
</defs>
</svg>

<svg xmlns="http://www.w3.org/2000/svg" width="72" height="72" fill="none" viewBox="0 0 72 72"><g clip-path="url(#a)"><path fill="#009de1" d="M72 51.97H51.956L51.96 72H20.054V51.97H0V20.03h20.053V0h31.903v20.03H72z"/><path fill="#fff" fill-rule="evenodd" d="M31.43 27.634H18.154a19.9 19.9 0 0 1 3.967-5.681 19.7 19.7 0 0 1 13.976-5.792c4.27 0 10.355 2.605 13.621 5.429 2.465 2.124 2.912 2.95 4.347 6.053H40.452c-1.317 0-2.38-.388-2.988-1.02-.793-.81-.852-2.007.236-3.33 1.908-2.344.245-4.426-1.764-4.51-2.017-.076-3.67 2.166-1.755 4.51 1.08 1.323 1.021 2.529.236 3.33-.616.64-1.67 1.02-2.987 1.011m-1.848 12.758a6970 6970 0 0 0-5.85 10.913c-4.515-3.624-7.4-9.18-7.4-15.401 0-2.352.413-4.637 1.164-6.727 3.063.07 5.916.381 8.266.638 1.346.147 2.528.276 3.49.331 2.827.169 4.92 1.67 3.005 5.26zm8.11-1.732c.49.835 9.376 13.674 9.376 13.674-3.13 2.09-6.819 3.313-10.971 3.313s-8.001-1.265-11.183-3.457c1.663-2.41 8.82-12.796 9.258-13.53.498-.834.92-1.34 1.756-1.34.835 0 1.257.514 1.764 1.34m16.989-9.517a19.7 19.7 0 0 1 1.181 6.76v.01c0 6.339-2.996 11.978-7.654 15.595-.254-.506-6.676-12.519-8.609-16.102-1.907-3.582.177-5.091 3.022-5.26.955-.056 2.129-.189 3.466-.34 2.431-.274 5.404-.608 8.594-.663m-31.785-4.09h9.106c0-.575-.274-.976-.575-1.419-.534-.78-1.155-1.691-.514-3.925-3.089.666-6.009 2.672-8.017 5.345m18.052-5.344c3.097.666 5.73 3.052 8.026 5.345H39.86c0-.572.273-.97.574-1.41.533-.781 1.157-1.693.515-3.935m-12.11 31.646s6.514-10.276 7.097-10.276c.582 0 7.106 10.276 7.106 10.276-1.924 1.003-4.355 1.5-7.106 1.5s-5.182-.505-7.098-1.5M42.87 32.818v-.009c.591 0 9.782-.75 9.782-.75 1.164 6.508-.76 11.186-3.764 14.938 0 0-6.102-11.516-6.76-12.763-.675-1.256-.001-1.332.741-1.416m-23.647-.75s9.191.75 9.773.75v.008c.76.076 1.418.16.76 1.416-.675 1.248-6.777 12.763-6.777 12.763-3.004-3.751-4.929-8.43-3.756-14.938" clip-rule="evenodd"/></g><defs><clipPath id="a"><path fill="#fff" d="M0 0h72v72H0z"/></clipPath></defs></svg>
